icons/svg/database-add.svg

<svg width="24" height="24" viewBox="0 0 24 24" fill="none" xmlns="http://www.w3.org/2000/svg">
<path d="M19.25 6.25C19.25 8.183 16.0041 9.75 12 9.75C7.99594 9.75 4.75 8.183 4.75 6.25M19.25 6.25C19.25 4.317 16.0041 2.75 12 2.75C7.99594 2.75 4.75 4.317 4.75 6.25M19.25 6.25V9.78M4.75 6.25V12M4.75 12V17.75C4.75 19.5058 7.42817 20.9597 10.92 21.2114M4.75 12C4.75 13.5769 6.91023 14.9103 9.88 15.348" stroke="currentColor" stroke-width="1.5" stroke-linecap="round" stroke-linejoin="round"/>
<path fill-rule="evenodd" clip-rule="evenodd" d="M17.5 23C20.5376 23 23 20.5376 23 17.5C23 15.0742 21.4296 13.0153 19.25 12.2843C18.7003 12.0999 18.1118 12 17.5 12C15.1698 12 13.178 13.4491 12.3768 15.4954C12.1335 16.1165 12 16.7927 12 17.5C12 18.9167 12.5356 20.2083 13.4154 21.1833C14.422 22.2989 15.8791 23 17.5 23ZM17.5 14.0066C17.7762 14.0066 18 14.2304 18 14.5066V17.0001H20.4934C20.7696 17.0001 20.9934 17.2239 20.9934 17.5001C20.9934 17.7762 20.7696 18.0001 20.4934 18.0001H18V20.4934C18 20.7696 17.7762 20.9934 17.5 20.9934C17.2239 20.9934 17 20.7696 17 20.4934V18.0001H14.5066C14.2304 18.0001 14.0066 17.7762 14.0066 17.5001C14.0066 17.2239 14.2304 17.0001 14.5066 17.0001H17V14.5066C17 14.2304 17.2239 14.0066 17.5 14.0066Z" fill="currentColor"/>
</svg>

<svg xmlns="http://www.w3.org/2000/svg" width="24" height="24" fill="none" viewBox="0 0 24 24"><path stroke="currentColor" stroke-linecap="round" stroke-linejoin="round" stroke-width="1.5" d="M19.25 6.25c0 1.933-3.246 3.5-7.25 3.5s-7.25-1.567-7.25-3.5m14.5 0c0-1.933-3.246-3.5-7.25-3.5s-7.25 1.567-7.25 3.5m14.5 0v3.53M4.75 6.25V12m0 0v5.75c0 1.756 2.678 3.21 6.17 3.461M4.75 12c0 1.577 2.16 2.91 5.13 3.348"/><path fill="currentColor" fill-rule="evenodd" d="M17.5 23a5.5 5.5 0 1 0 0-11 5.5 5.5 0 0 0 0 11m0-8.993a.5.5 0 0 1 .5.5V17h2.493a.5.5 0 1 1 0 1H18v2.493a.5.5 0 1 1-1 0V18h-2.493a.5.5 0 1 1 0-1H17v-2.493a.5.5 0 0 1 .5-.5" clip-rule="evenodd"/></svg>
